X:178
T:Milton Hornpipe. Le4.178
Q:1/4=100
L:1/8
B:L.Leadley MS#4 c1850
Z:vmp.Mike Hicken 2016 www.village-music-project.org.uk
N:Tune 35 in "The Fiddler of Helperby"
N: * In Helperby these three notes are shown as triplet quavers.
N: ** In the original this note is shown as a quaver but it has been dotted to match the preceeding semi-quaver.
M:C|
K:G
"*"D/F/F/|G2 GA GBdB|AGAB c2 Bd|gfgd ecAF|GBcB GFED|
G2 GA GBdB|AGAB c2 Bd|gfgd ecAF|G<"**"G G2G2 :|
|: d2|dedc Bd g2|e>fed ^ce a2|gfgd ecAF|GBdB GFED|
dedc Bd g2|efed ^ce a2|gfgd ecAF|G<"**"G G2G2 :|

